X:196
T:Ardeleana
S:Efter [[!Owe Ronström]], som hört den i Ungern
O:Bihor, Rumänien
M:4/4
L:1/16
K:Dm
a^gfg fed^c dcBc A4|d^cde fedf e^gae ^gae2|
a^gfg fed^c dcBc A4|G^FGA B^cdB A4 A4:|
d^cBc A4 d^cBc A4|d^cde fedf e^gae ^gae2|
d^cBc A4 d^cBc A4|G^FGA B^cdB A4 A4|]
(:musicend:)

(:music:)
